src/assets/patterns/multiclass.svg

<svg width="360" height="49" viewBox="0 0 360 49" fill="none" xmlns="http://www.w3.org/2000/svg">
<path d="M360 16.8452C358.031 18.9886 356.015 21.0426 353.882 22.8984C349.543 18.998 345.667 14.621 341.844 10.3718L341.9 10.3041C344.418 7.2966 346.432 3.7332 348.049 0H360V16.8452Z" fill="currentColor"/>
<path d="M346.66 0C345.141 3.43541 343.283 6.69051 341 9.43502C337.966 6.07621 334.944 2.83416 331.733 0H346.66Z" fill="currentColor"/>
<path d="M354.015 32.9305C354.631 36.8104 355.673 42.2972 357.285 48H351.05C352.674 42.2711 353.555 36.8018 354.015 32.9305Z" fill="currentColor"/>
<path d="M360 34.8503V48H358.611C356.15 39.3838 354.982 31.1531 354.626 28.3122C356.29 30.5014 358.088 32.6867 360 34.8503Z" fill="currentColor"/>
<path d="M353.196 28.2862C352.996 31.0533 352.221 39.2785 349.714 48H334.665C341.233 42.3497 348.435 34.9101 353.196 28.2862Z" fill="currentColor"/>
<path d="M360 23.9033V27.4085C359.237 26.7965 358.478 26.1791 357.702 25.5823C358.489 25.0519 359.25 24.4853 360 23.9033Z" fill="currentColor"/>
<path d="M337.276 12.9958C341.508 17.6808 345.711 22.1527 350.444 25.5823C343.427 30.4909 333.721 39.6072 327.107 48H325.319C326.1 40.5011 328.767 23.2228 337.276 12.9958Z" fill="currentColor"/>
<path d="M306.278 10.2755L306.358 10.3839C302.513 14.776 298.749 19.2239 294.524 22.8984C290.185 18.998 286.309 14.621 282.486 10.3718L282.542 10.3041C285.06 7.2966 287.074 3.7332 288.691 0H300.785C302.298 3.78843 304.112 7.35868 306.278 10.2755Z" fill="currentColor"/>
<path d="M307.2 9.42324C305.238 6.75286 303.57 3.48726 302.154 0H316.468C313.151 2.83142 310.138 6.08963 307.2 9.42324Z" fill="currentColor"/>
<path d="M287.302 0C285.783 3.43541 283.925 6.69051 281.642 9.43502C278.608 6.07621 275.586 2.83416 272.375 0H287.302Z" fill="currentColor"/>
<path d="M294.656 32.9305C295.273 36.8104 296.315 42.2972 297.927 48H291.692C293.316 42.2711 294.197 36.8018 294.656 32.9305Z" fill="currentColor"/>
<path d="M295.268 28.3122C300.421 35.0923 306.862 41.8303 313.998 48H299.253C296.792 39.3838 295.624 31.1531 295.268 28.3122Z" fill="currentColor"/>
<path d="M293.839 28.2862C293.638 31.0533 292.863 39.2785 290.356 48H275.307C281.875 42.3497 289.077 34.9101 293.839 28.2862Z" fill="currentColor"/>
<path d="M336.432 12.059L336.375 12.1267C328.149 21.9543 325.251 37.6928 324.261 46.0317C322.919 37.5782 319.585 21.509 312.64 12.1552L312.56 12.0469C316.249 7.83248 319.875 3.58458 323.894 0H324.888C329.024 3.78341 332.757 7.97508 336.432 12.059Z" fill="currentColor"/>
<path d="M298.344 25.5823C303.373 22.1894 307.614 17.6646 311.718 13.0075C318.876 22.7467 322.153 40.3652 323.285 48H321.553C315.15 40.0959 307.116 32.3358 298.344 25.5823Z" fill="currentColor"/>
<path d="M277.918 12.9958C282.15 17.6808 286.353 22.1527 291.086 25.5823C284.069 30.4909 274.363 39.6072 267.749 48H265.961C266.742 40.5011 269.409 23.2228 277.918 12.9958Z" fill="currentColor"/>
<path d="M246.92 10.2755L247 10.3839C243.155 14.776 239.391 19.2239 235.166 22.8984C230.827 18.998 226.951 14.621 223.128 10.3718L223.184 10.3041C225.702 7.2966 227.716 3.7332 229.333 0H241.427C242.94 3.78843 244.754 7.35868 246.92 10.2755Z" fill="currentColor"/>
<path d="M247.842 9.42324C245.88 6.75286 244.211 3.48726 242.796 0H257.11C253.793 2.83142 250.78 6.08963 247.842 9.42324Z" fill="currentColor"/>
<path d="M227.944 0C226.425 3.43541 224.567 6.69051 222.284 9.43502C219.25 6.07621 216.228 2.83416 213.017 0H227.944Z" fill="currentColor"/>
<path d="M235.299 32.9305C235.915 36.8104 236.957 42.2972 238.569 48H232.334C233.958 42.2711 234.839 36.8018 235.299 32.9305Z" fill="currentColor"/>
<path d="M235.91 28.3122C241.063 35.0923 247.504 41.8303 254.64 48H239.895C237.434 39.3838 236.266 31.1531 235.91 28.3122Z" fill="currentColor"/>
<path d="M234.48 28.2862C234.28 31.0533 233.505 39.2785 230.998 48H215.949C222.516 42.3497 229.719 34.9101 234.48 28.2862Z" fill="currentColor"/>
<path d="M277.074 12.059L277.017 12.1267C268.791 21.9543 265.893 37.6928 264.903 46.0317C263.562 37.5782 260.228 21.509 253.282 12.1552L253.202 12.0469C256.891 7.83248 260.517 3.58458 264.536 0H265.53C269.666 3.78341 273.399 7.97508 277.074 12.059Z" fill="currentColor"/>
<path d="M238.986 25.5823C244.015 22.1894 248.256 17.6646 252.359 13.0075C259.518 22.7467 262.795 40.3652 263.927 48H262.195C255.792 40.0959 247.758 32.3358 238.986 25.5823Z" fill="currentColor"/>
<path d="M218.56 12.9958C222.791 17.6808 226.995 22.1527 231.728 25.5823C224.711 30.4909 215.005 39.6072 208.391 48H206.603C207.384 40.5011 210.051 23.2228 218.56 12.9958Z" fill="currentColor"/>
<path d="M187.562 10.2755L187.642 10.3839C183.797 14.776 180.033 19.2239 175.808 22.8984C171.469 18.998 167.593 14.621 163.77 10.3718L163.826 10.3041C166.344 7.2966 168.358 3.7332 169.975 0H182.069C183.582 3.78843 185.396 7.35868 187.562 10.2755Z" fill="currentColor"/>
<path d="M188.484 9.42324C186.522 6.75286 184.853 3.48726 183.438 0H197.752C194.435 2.83142 191.422 6.08963 188.484 9.42324Z" fill="currentColor"/>
<path d="M168.586 0C167.067 3.43541 165.209 6.69051 162.926 9.43502C159.892 6.07621 156.87 2.83416 153.659 0H168.586Z" fill="currentColor"/>
<path d="M175.941 32.9305C176.556 36.8104 177.599 42.2972 179.211 48H172.976C174.6 42.2711 175.481 36.8018 175.941 32.9305Z" fill="currentColor"/>
<path d="M176.552 28.3122C181.705 35.0923 188.146 41.8303 195.282 48H180.537C178.076 39.3838 176.908 31.1531 176.552 28.3122Z" fill="currentColor"/>
<path d="M175.122 28.2862C174.922 31.0533 174.147 39.2785 171.64 48H156.591C163.158 42.3497 170.361 34.9101 175.122 28.2862Z" fill="currentColor"/>
<path d="M217.716 12.059L217.659 12.1267C209.433 21.9543 206.535 37.6928 205.545 46.0317C204.204 37.5782 200.87 21.509 193.924 12.1552L193.844 12.0469C197.533 7.83248 201.159 3.58458 205.178 0H206.172C210.308 3.78341 214.041 7.97508 217.716 12.059Z" fill="currentColor"/>
<path d="M179.628 25.5823C184.657 22.1894 188.898 17.6646 193.001 13.0075C200.16 22.7467 203.436 40.3652 204.569 48H202.837C196.434 40.0959 188.4 32.3358 179.628 25.5823Z" fill="currentColor"/>
<path d="M159.202 12.9958C163.433 17.6808 167.637 22.1527 172.37 25.5823C165.353 30.4909 155.647 39.6072 149.033 48H147.245C148.026 40.5011 150.693 23.2228 159.202 12.9958Z" fill="currentColor"/>
<path d="M128.204 10.2755L128.284 10.3839C124.44 14.776 120.675 19.2239 116.449 22.8984C112.111 18.998 108.235 14.621 104.412 10.3718L104.468 10.3041C106.986 7.2966 109 3.7332 110.617 0H122.711C124.224 3.78843 126.038 7.35868 128.204 10.2755Z" fill="currentColor"/>
<path d="M129.126 9.42324C127.164 6.75286 125.495 3.48726 124.08 0H138.394C135.077 2.83142 132.064 6.08963 129.126 9.42324Z" fill="currentColor"/>
<path d="M109.228 0C107.709 3.43541 105.851 6.69051 103.568 9.43502C100.534 6.07621 97.5115 2.83416 94.3013 0H109.228Z" fill="currentColor"/>
<path d="M116.583 32.9305C117.198 36.8104 118.241 42.2972 119.853 48H113.618C115.242 42.2711 116.123 36.8018 116.583 32.9305Z" fill="currentColor"/>
<path d="M117.194 28.3122C122.348 35.0923 128.788 41.8303 135.924 48H121.179C118.718 39.3838 117.55 31.1531 117.194 28.3122Z" fill="currentColor"/>
<path d="M115.764 28.2862C115.564 31.0533 114.789 39.2785 112.282 48H97.2329C103.8 42.3497 111.003 34.9101 115.764 28.2862Z" fill="currentColor"/>
<path d="M158.358 12.059L158.301 12.1267C150.075 21.9543 147.177 37.6928 146.187 46.0317C144.846 37.5782 141.512 21.509 134.566 12.1552L134.486 12.0469C138.175 7.83248 141.801 3.58458 145.82 0H146.814C150.95 3.78341 154.683 7.97508 158.358 12.059Z" fill="currentColor"/>
<path d="M120.27 25.5823C125.299 22.1894 129.54 17.6646 133.643 13.0075C140.802 22.7467 144.078 40.3652 145.211 48H143.479C137.076 40.0959 129.042 32.3358 120.27 25.5823Z" fill="currentColor"/>
<path d="M99.8438 12.9958C104.075 17.6808 108.279 22.1527 113.012 25.5823C105.995 30.4909 96.2889 39.6072 89.675 48H87.8871C88.6679 40.5011 91.3354 23.2228 99.8438 12.9958Z" fill="currentColor"/>
<path d="M68.8458 10.2755L68.9262 10.3839C65.0817 14.776 61.3168 19.2239 57.0914 22.8984C52.7529 18.998 48.877 14.621 45.0537 10.3718L45.1103 10.3041C47.6281 7.2966 49.6416 3.7332 51.2593 0H63.353C64.8655 3.78843 66.6796 7.35868 68.8458 10.2755Z" fill="currentColor"/>
<path d="M69.7682 9.42324C67.8055 6.75286 66.1374 3.48726 64.7224 0H79.0355C75.719 2.83142 72.706 6.08963 69.7682 9.42324Z" fill="currentColor"/>
<path d="M49.8699 0C48.3515 3.43541 46.4932 6.69051 44.2101 9.43502C41.1763 6.07621 38.1535 2.83416 34.9433 0H49.8699Z" fill="currentColor"/>
<path d="M57.2247 32.9305C57.8404 36.8104 58.8833 42.2972 60.4948 48H54.2603C55.8842 42.2711 56.765 36.8018 57.2247 32.9305Z" fill="currentColor"/>
<path d="M57.8357 28.3122C62.9896 35.0923 69.4301 41.8303 76.5655 48H61.8207C59.3599 39.3838 58.1921 31.1531 57.8357 28.3122Z" fill="currentColor"/>
<path d="M56.4064 28.2862C56.2059 31.0533 55.4307 39.2785 52.9241 48H37.8748C44.4424 42.3497 51.645 34.9101 56.4064 28.2862Z" fill="currentColor"/>
<path d="M98.9999 12.059L98.9437 12.1267C90.7165 21.9543 87.8192 37.6928 86.8292 46.0317C85.4876 37.5782 82.1536 21.509 75.2081 12.1552L75.1278 12.0469C78.8167 7.83248 82.4425 3.58458 86.4619 0H87.4562C91.5921 3.78341 95.3256 7.97508 98.9999 12.059Z" fill="currentColor"/>
<path d="M60.9122 25.5823C65.9413 22.1894 70.1816 17.6646 74.2854 13.0075C81.4441 22.7467 84.7204 40.3652 85.8532 48H84.1212C77.7176 40.0959 69.6835 32.3358 60.9122 25.5823Z" fill="currentColor"/>
<path d="M40.4858 12.9958C44.7174 17.6808 48.9212 22.1527 53.6541 25.5823C46.6367 30.4909 36.9309 39.6072 30.317 48H28.5291C29.3102 40.5011 31.9774 23.2228 40.4858 12.9958Z" fill="currentColor"/>
<path d="M9.48779 10.2755L9.56813 10.3839C6.42805 13.9709 3.32741 17.5711 0 20.7809V0H3.99494C5.50746 3.78843 7.32162 7.35868 9.48779 10.2755Z" fill="currentColor"/>
<path d="M10.4102 9.42324C8.44743 6.75286 6.77934 3.48726 5.36432 0H19.6778C16.361 2.83142 13.348 6.08963 10.4102 9.42324Z" fill="currentColor"/>
<path d="M0 43.6506C0.342162 45.0716 0.720111 46.5258 1.13677 48H0V43.6506Z" fill="currentColor"/>
<path d="M0 37.6643V30.2359C4.8801 36.3632 10.748 42.4148 17.2074 48H2.46269C1.42269 44.3582 0.613847 40.7903 0 37.6643Z" fill="currentColor"/>
<path d="M39.6419 12.059L39.5857 12.1267C31.3588 21.9543 28.4612 37.6928 27.4712 46.0317C26.1296 37.5782 22.7956 21.509 15.8501 12.1552L15.7698 12.0469C19.4587 7.83248 23.0844 3.58458 27.1039 0H28.0982C32.2341 3.78341 35.9676 7.97508 39.6419 12.059Z" fill="currentColor"/>
<path d="M1.55452 25.5823C6.58325 22.1894 10.8236 17.6646 14.9273 13.0075C22.0861 22.7467 25.3624 40.3652 26.4951 48H24.7631C18.3595 40.0959 10.3255 32.3358 1.55452 25.5823Z" fill="currentColor"/>
</svg>

<svg xmlns="http://www.w3.org/2000/svg" width="360" height="49" fill="none"><path fill="currentColor" d="M360 16.845c-1.969 2.144-3.985 4.198-6.118 6.053-4.339-3.9-8.215-8.277-12.038-12.526l.056-.068c2.518-3.007 4.532-6.57 6.149-10.304H360zM346.66 0c-1.519 3.435-3.377 6.69-5.66 9.435-3.034-3.359-6.056-6.6-9.267-9.435zm7.355 32.93c.616 3.88 1.658 9.367 3.27 15.07h-6.235c1.624-5.729 2.505-11.198 2.965-15.07M360 34.85V48h-1.389c-2.461-8.616-3.629-16.847-3.985-19.688A115 115 0 0 0 360 34.85m-6.804-6.564c-.2 2.767-.975 10.993-3.482 19.714h-15.049c6.568-5.65 13.77-13.09 18.531-19.714M360 23.903v3.506c-.763-.612-1.522-1.23-2.298-1.827A43 43 0 0 0 360 23.903m-22.724-10.907c4.232 4.685 8.435 9.157 13.168 12.586-7.017 4.909-16.723 14.025-23.337 22.418h-1.788c.781-7.499 3.448-24.777 11.957-35.004m-30.998-2.72.08.108c-3.845 4.392-7.609 8.84-11.834 12.514-4.339-3.9-8.215-8.277-12.038-12.526l.056-.068c2.518-3.007 4.532-6.57 6.149-10.304h12.094c1.513 3.788 3.327 7.359 5.493 10.276m.922-.853c-1.962-2.67-3.63-5.936-5.046-9.423h14.314c-3.317 2.831-6.33 6.09-9.268 9.423M287.302 0c-1.519 3.435-3.377 6.69-5.66 9.435-3.034-3.359-6.056-6.6-9.267-9.435zm7.354 32.93c.617 3.88 1.659 9.367 3.271 15.07h-6.235c1.624-5.729 2.505-11.198 2.964-15.07m.612-4.618c5.153 6.78 11.594 13.518 18.73 19.688h-14.745c-2.461-8.616-3.629-16.847-3.985-19.688m-1.429-.026c-.201 2.767-.976 10.993-3.483 19.714h-15.049c6.568-5.65 13.77-13.09 18.532-19.714"/><path fill="currentColor" d="m336.432 12.059-.057.068c-8.226 9.827-11.124 25.566-12.114 33.905-1.342-8.454-4.676-24.523-11.621-33.877l-.08-.108c3.689-4.215 7.315-8.462 11.334-12.047h.994c4.136 3.783 7.869 7.975 11.544 12.059"/><path fill="currentColor" d="M298.344 25.582c5.029-3.393 9.27-7.917 13.374-12.574 7.158 9.739 10.435 27.357 11.567 34.992h-1.732c-6.403-7.904-14.437-15.664-23.209-22.418m-20.426-12.586c4.232 4.685 8.435 9.157 13.168 12.586-7.017 4.909-16.723 14.025-23.337 22.418h-1.788c.781-7.499 3.448-24.777 11.957-35.004m-30.998-2.72.08.108c-3.845 4.392-7.609 8.84-11.834 12.514-4.339-3.9-8.215-8.277-12.038-12.526l.056-.068c2.518-3.007 4.532-6.57 6.149-10.304h12.094c1.513 3.788 3.327 7.359 5.493 10.276m.922-.853c-1.962-2.67-3.631-5.936-5.046-9.423h14.314c-3.317 2.831-6.33 6.09-9.268 9.423M227.944 0c-1.519 3.435-3.377 6.69-5.66 9.435-3.034-3.359-6.056-6.6-9.267-9.435zm7.355 32.93c.616 3.88 1.658 9.367 3.27 15.07h-6.235c1.624-5.729 2.505-11.198 2.965-15.07m.611-4.618c5.153 6.78 11.594 13.518 18.73 19.688h-14.745c-2.461-8.616-3.629-16.847-3.985-19.688m-1.43-.026c-.2 2.767-.975 10.993-3.482 19.714h-15.049c6.567-5.65 13.77-13.09 18.531-19.714"/><path fill="currentColor" d="m277.074 12.059-.057.068c-8.226 9.827-11.124 25.566-12.114 33.905-1.341-8.454-4.675-24.523-11.621-33.877l-.08-.108c3.689-4.215 7.315-8.462 11.334-12.047h.994c4.136 3.783 7.869 7.975 11.544 12.059"/><path fill="currentColor" d="M238.986 25.582c5.029-3.393 9.27-7.917 13.373-12.574 7.159 9.739 10.436 27.357 11.568 34.992h-1.732c-6.403-7.904-14.437-15.664-23.209-22.418M218.56 12.996c4.231 4.685 8.435 9.157 13.168 12.586-7.017 4.909-16.723 14.025-23.337 22.418h-1.788c.781-7.499 3.448-24.777 11.957-35.004m-30.998-2.72.08.108c-3.845 4.392-7.609 8.84-11.834 12.514-4.339-3.9-8.215-8.277-12.038-12.526l.056-.068c2.518-3.007 4.532-6.57 6.149-10.304h12.094c1.513 3.788 3.327 7.359 5.493 10.276m.922-.853c-1.962-2.67-3.631-5.936-5.046-9.423h14.314c-3.317 2.831-6.33 6.09-9.268 9.423M168.586 0c-1.519 3.435-3.377 6.69-5.66 9.435-3.034-3.359-6.056-6.6-9.267-9.435zm7.355 32.93c.615 3.88 1.658 9.367 3.27 15.07h-6.235c1.624-5.729 2.505-11.198 2.965-15.07m.611-4.618c5.153 6.78 11.594 13.518 18.73 19.688h-14.745c-2.461-8.616-3.629-16.847-3.985-19.688m-1.43-.026c-.2 2.767-.975 10.993-3.482 19.714h-15.049c6.567-5.65 13.77-13.09 18.531-19.714"/><path fill="currentColor" d="m217.716 12.059-.057.068c-8.226 9.827-11.124 25.566-12.114 33.905-1.341-8.454-4.675-24.523-11.621-33.877l-.08-.108c3.689-4.215 7.315-8.462 11.334-12.047h.994c4.136 3.783 7.869 7.975 11.544 12.059"/><path fill="currentColor" d="M179.628 25.582c5.029-3.393 9.27-7.917 13.373-12.574 7.159 9.739 10.435 27.357 11.568 34.992h-1.732c-6.403-7.904-14.437-15.664-23.209-22.418m-20.426-12.586c4.231 4.685 8.435 9.157 13.168 12.586-7.017 4.909-16.723 14.025-23.337 22.418h-1.788c.781-7.499 3.448-24.777 11.957-35.004m-30.998-2.72.08.108c-3.844 4.392-7.609 8.84-11.835 12.514-4.338-3.9-8.214-8.277-12.037-12.526l.056-.068C106.986 7.297 109 3.734 110.617 0h12.094c1.513 3.788 3.327 7.359 5.493 10.276m.922-.853c-1.962-2.67-3.631-5.936-5.046-9.423h14.314c-3.317 2.831-6.33 6.09-9.268 9.423M109.228 0c-1.519 3.435-3.377 6.69-5.66 9.435-3.034-3.359-6.056-6.6-9.267-9.435zm7.355 32.93c.615 3.88 1.658 9.367 3.27 15.07h-6.235c1.624-5.729 2.505-11.198 2.965-15.07m.611-4.618c5.154 6.78 11.594 13.518 18.73 19.688h-14.745c-2.461-8.616-3.629-16.847-3.985-19.688m-1.43-.026c-.2 2.767-.975 10.993-3.482 19.714h-15.05c6.568-5.65 13.771-13.09 18.532-19.714"/><path fill="currentColor" d="m158.358 12.059-.057.068c-8.226 9.827-11.124 25.566-12.114 33.905-1.341-8.454-4.675-24.523-11.621-33.877l-.08-.108C138.175 7.832 141.801 3.585 145.82 0h.994c4.136 3.783 7.869 7.975 11.544 12.059"/><path fill="currentColor" d="M120.27 25.582c5.029-3.393 9.27-7.917 13.373-12.574 7.159 9.739 10.435 27.357 11.568 34.992h-1.732c-6.403-7.904-14.437-15.664-23.209-22.418M99.844 12.996c4.231 4.685 8.435 9.157 13.168 12.586C105.995 30.491 96.289 39.607 89.675 48h-1.788c.78-7.499 3.448-24.777 11.957-35.004m-30.998-2.72.08.108c-3.844 4.392-7.61 8.84-11.835 12.514-4.338-3.9-8.214-8.277-12.037-12.526l.056-.068C47.628 7.297 49.642 3.734 51.26 0h12.093c1.512 3.788 3.327 7.359 5.493 10.276m.922-.853c-1.963-2.67-3.63-5.936-5.046-9.423h14.314c-3.317 2.831-6.33 6.09-9.268 9.423M49.87 0c-1.518 3.435-3.377 6.69-5.66 9.435-3.034-3.359-6.056-6.6-9.267-9.435zm7.355 32.93c.615 3.88 1.658 9.367 3.27 15.07H54.26c1.624-5.729 2.505-11.198 2.965-15.07m.611-4.618C62.99 35.092 69.43 41.83 76.566 48H61.82c-2.461-8.616-3.629-16.847-3.985-19.688m-1.429-.026c-.2 2.767-.975 10.993-3.482 19.714h-15.05c6.568-5.65 13.771-13.09 18.532-19.714"/><path fill="currentColor" d="m99 12.059-.056.068c-8.228 9.827-11.125 25.566-12.115 33.905-1.341-8.454-4.675-24.523-11.62-33.877l-.081-.108C78.817 7.832 82.442 3.585 86.462 0h.994C91.592 3.783 95.326 7.975 99 12.059"/><path fill="currentColor" d="M60.912 25.582c5.03-3.393 9.27-7.917 13.373-12.574C81.445 22.747 84.72 40.365 85.853 48h-1.732c-6.403-7.904-14.437-15.664-23.209-22.418M40.486 12.996c4.231 4.685 8.435 9.157 13.168 12.586C46.637 30.491 36.931 39.607 30.317 48h-1.788c.781-7.499 3.448-24.777 11.957-35.004m-30.998-2.72.08.108C6.428 13.97 3.328 17.57 0 20.78V0h3.995c1.512 3.788 3.327 7.359 5.493 10.276m.922-.853C8.447 6.753 6.78 3.487 5.364 0h14.314c-3.317 2.831-6.33 6.09-9.268 9.423M0 43.65c.342 1.422.72 2.876 1.137 4.35H0zm0-5.986v-7.428C4.88 36.363 10.748 42.415 17.207 48H2.463A127 127 0 0 1 0 37.664"/><path fill="currentColor" d="m39.642 12.059-.056.068C31.359 21.954 28.46 37.693 27.47 46.032c-1.341-8.454-4.675-24.523-11.62-33.877l-.081-.108C19.459 7.832 23.084 3.585 27.104 0h.994c4.136 3.783 7.87 7.975 11.544 12.059"/><path fill="currentColor" d="M1.555 25.582c5.028-3.393 9.269-7.917 13.372-12.574C22.087 22.747 25.362 40.365 26.495 48h-1.732C18.36 40.096 10.325 32.336 1.555 25.582"/></svg>
